icons/intestinal-pain_fill.svg

<svg width="48" height="48" viewBox="0 0 48 48" fill="none" xmlns="http://www.w3.org/2000/svg">
<path fill-rule="evenodd" clip-rule="evenodd" d="M41.8779 7.52115C42.1424 8.006 41.9637 8.61343 41.4789 8.8779L35.9789 11.8779C35.669 12.0469 35.293 12.0401 34.9895 11.8599C34.686 11.6797 34.5 11.3529 34.5 11V9.68454L30.4789 11.8779C29.994 12.1424 29.3866 11.9637 29.1221 11.4789C28.8576 10.994 29.0363 10.3866 29.5211 10.1221L35.0211 7.1221C35.331 6.9531 35.707 6.95994 36.0105 7.1401C36.314 7.32026 36.5 7.64706 36.5 8V9.31546L40.5211 7.1221C41.006 6.85764 41.6134 7.0363 41.8779 7.52115Z" fill="black"/>
<path fill-rule="evenodd" clip-rule="evenodd" d="M30.0958 33.5728C30.3318 33.0735 30.9278 32.8599 31.4272 33.0958L36.7743 35.6222C37.0941 35.7733 37.3103 36.0821 37.3429 36.4343C37.3754 36.7864 37.2196 37.1296 36.9329 37.3368L35.6105 38.2926L39.4272 40.0958C39.9265 40.3318 40.1401 40.9278 39.9042 41.4272C39.6682 41.9265 39.0722 42.1401 38.5728 41.9042L33.2257 39.3778C32.9059 39.2267 32.6897 38.9179 32.6571 38.5657C32.6245 38.2136 32.7804 37.8704 33.0671 37.6632L34.3895 36.7074L30.5728 34.9042C30.0735 34.6682 29.8599 34.0722 30.0958 33.5728Z" fill="black"/>
<path fill-rule="evenodd" clip-rule="evenodd" d="M37.5167 21.215C37.8116 21.4478 37.9512 21.8262 37.878 22.1948L37.4653 24.273L40.5823 22.84C41.0841 22.6093 41.6779 22.829 41.9086 23.3308C42.1393 23.8326 41.9195 24.4264 41.4177 24.6571L36.5206 26.9086C36.1791 27.0656 35.7785 27.0179 35.4835 26.7851C35.1884 26.5523 35.0488 26.1738 35.122 25.8052L35.5349 23.7262L32.4174 25.1581C31.9155 25.3886 31.3218 25.1686 31.0913 24.6667C30.8608 24.1648 31.0807 23.5711 31.5826 23.3406L36.4798 21.0913C36.8212 20.9344 37.2217 20.9822 37.5167 21.215Z" fill="black"/>
<path fill-rule="evenodd" clip-rule="evenodd" d="M22.2 6V11.5385C22.2 13.1126 21.2549 14.1507 20.39 14.6691C19.6826 15.0931 18.9172 15.2585 18.4653 15.3422C17.9839 15.4314 17.4529 15.4928 17.0163 15.5433C16.9942 15.5459 16.9723 15.5484 16.9507 15.5509C16.4609 15.6076 16.0266 15.659 15.6062 15.731C14.7026 15.8857 14.2778 16.0758 14.1069 16.2069C14.0777 16.2293 14.0668 16.2422 14.0652 16.2441C14.0652 16.2441 14.0629 16.2468 14.0597 16.2535C14.0576 16.258 14.0386 16.2976 14.0227 16.3881C14.0626 16.4038 14.108 16.4206 14.1595 16.4383C15.0141 16.731 16.2315 16.8576 17.9883 17.0403C18.094 17.0513 18.2018 17.0625 18.3115 17.0739C19.9685 17.2469 22.2095 17.4888 24.0323 18.3001C25.0017 18.7315 26.0299 19.3952 26.8106 20.4511C27.6188 21.544 28 22.8391 28 24.2308C28 25.7204 27.5239 27.1081 26.4956 28.1991C25.538 29.2151 24.3304 29.729 23.2918 30.0132C21.3969 30.5317 19.0544 30.5276 17.2313 30.5244C17.152 30.5243 17.0737 30.5241 16.9964 30.524C14.8524 30.5215 13.3192 30.5449 12.3004 30.8269C12.1687 30.8634 12.0713 30.898 12.0011 30.9267C12.0108 31.262 12.0795 31.3759 12.0816 31.3793C12.0861 31.3872 12.0916 31.3955 12.1065 31.4097C12.1233 31.4257 12.162 31.4586 12.238 31.502C12.6355 31.7291 13.4229 31.9162 14.7543 31.9847C15.3581 32.0158 15.9707 32.0202 16.6222 32.0248L16.6775 32.0252C17.31 32.0297 18.0312 32.0348 18.6794 32.0845C19.2599 32.129 20.1598 32.229 20.9871 32.615C21.438 32.8253 22.0126 33.1861 22.4764 33.8062C22.972 34.4687 23.2 35.2397 23.2 36V42H17.2V38.0304C17.0261 38.028 16.8384 38.0265 16.635 38.025L16.5387 38.0243C15.9183 38.02 15.1861 38.0149 14.4457 37.9768C12.9771 37.9011 10.9645 37.6844 9.26203 36.712C8.35296 36.1927 7.49467 35.4383 6.8809 34.3715C6.26898 33.3079 6 32.1075 6 30.8462C6 29.3566 6.47273 27.9682 7.49646 26.8736C8.45161 25.8524 9.65831 25.3327 10.6996 25.0444C12.6057 24.5168 14.9613 24.5207 16.7899 24.5237C16.862 24.5238 16.9332 24.524 17.0036 24.524C19.1503 24.5266 20.6855 24.5058 21.7082 24.226C21.8333 24.1917 21.9275 24.1592 21.9969 24.1317C21.9927 24.0705 21.9851 24.0324 21.9791 24.0112C21.9506 23.983 21.8493 23.8959 21.5927 23.7817C20.7905 23.4247 19.5315 23.2339 17.6885 23.0415C17.5305 23.025 17.3663 23.0084 17.1968 22.9913C15.6848 22.8384 13.7612 22.644 12.2155 22.1146C11.3087 21.804 10.2434 21.2912 9.39215 20.3644C8.46931 19.3598 8 18.0882 8 16.6923C8 14.4332 8.90138 12.6377 10.4556 11.4458C11.8222 10.3978 13.4474 10.0133 14.5938 9.81706C15.1729 9.71791 15.7392 9.65117 16.2 9.59775V6H22.2ZM21.9704 23.9893C21.9704 23.9893 21.9736 23.9933 21.9772 24.0048C21.9718 23.9956 21.9704 23.9893 21.9704 23.9893Z" fill="black"/>
</svg>

<svg
  xmlns="http://www.w3.org/2000/svg"
  width="24"
  height="24"
  viewBox="0 0 24 24"
  fill="none"
  stroke="currentColor"
  stroke-width="2"
  stroke-linecap="round"
  stroke-linejoin="round"
>
  <path
    fill-rule="evenodd"
    d="M41.878 7.521a1 1 0 0 1-.4 1.357l-5.5 3A1 1 0 0 1 34.5 11V9.685l-4.021 2.193a1 1 0 0 1-.958-1.756l5.5-3A1 1 0 0 1 36.5 8v1.315l4.021-2.193a1 1 0 0 1 1.357.4"
    clip-rule="evenodd"
  />
  <path
    fill-rule="evenodd"
    d="M30.096 33.573a1 1 0 0 1 1.331-.477l5.347 2.526a1 1 0 0 1 .159 1.715l-1.322.956 3.816 1.803a1 1 0 0 1-.854 1.808l-5.347-2.526a1 1 0 0 1-.159-1.715l1.322-.956-3.816-1.803a1 1 0 0 1-.477-1.331"
    clip-rule="evenodd"
  />
  <path
    fill-rule="evenodd"
    d="M37.517 21.215a1 1 0 0 1 .361.98l-.413 2.078 3.117-1.433a1 1 0 1 1 .836 1.817L36.52 26.91a1 1 0 0 1-1.399-1.104l.413-2.079-3.118 1.432a1 1 0 0 1-.834-1.817l4.897-2.25a1 1 0 0 1 1.037.124"
    clip-rule="evenodd"
  />
  <path
    fill-rule="evenodd"
    d="M22.2 6v5.539c0 1.574-.945 2.612-1.81 3.13-.707.424-1.473.59-1.925.673-.481.09-1.012.15-1.449.201l-.065.008c-.49.057-.924.108-1.345.18-.903.155-1.328.345-1.5.476a.3.3 0 0 0-.04.037q0 0-.006.01c-.002.004-.021.044-.037.134q.06.024.136.05c.855.293 2.073.42 3.83.602l.322.034c1.657.173 3.898.415 5.721 1.226.97.431 1.998 1.095 2.779 2.151.808 1.093 1.189 2.388 1.189 3.78 0 1.49-.476 2.877-1.504 3.968-.958 1.016-2.166 1.53-3.204 1.814-1.895.519-4.238.515-6.06.511h-.236c-2.144-.003-3.677.02-4.696.303q-.195.055-.299.1c.01.335.079.449.08.452.005.008.01.016.026.03a.7.7 0 0 0 .131.093c.398.227 1.185.414 2.516.483.604.03 1.217.035 1.868.04h.055c.633.005 1.354.01 2.002.06.58.044 1.48.144 2.308.53.451.21 1.026.571 1.49 1.191.495.663.723 1.434.723 2.194v6h-6v-3.97l-.565-.005h-.096c-.62-.005-1.353-.01-2.093-.048-1.469-.076-3.482-.293-5.184-1.265-.909-.52-1.767-1.274-2.381-2.34C6.269 33.308 6 32.107 6 30.845c0-1.49.473-2.878 1.496-3.972.956-1.022 2.162-1.541 3.204-1.83 1.906-.527 4.261-.523 6.09-.52h.214c2.146.003 3.682-.018 4.704-.298q.186-.052.289-.094a.6.6 0 0 0-.018-.12c-.028-.029-.13-.116-.386-.23-.802-.357-2.061-.548-3.904-.74q-.238-.026-.492-.05c-1.512-.154-3.436-.348-4.981-.877-.907-.311-1.973-.824-2.824-1.75C8.47 19.36 8 18.087 8 16.691c0-2.259.901-4.054 2.456-5.246 1.366-1.048 2.991-1.433 4.138-1.629a30 30 0 0 1 1.606-.22V6zm-.23 17.99q.001-.002.007.015z"
    clip-rule="evenodd"
  />
</svg>
